X: 1
T: Dowd's No. 9
R: reel
M: 4/4
L: 1/8
K: Dmaj
DFAF GFEF|D2 FA dABG|F2 AF GFGB|AGFD EB,CD|
DF F2 GFEF|DEFA dABG|F2 AF GFGB|AGFD ED D2 :|
fd d2 g2 ag|f2 df edBA|fefa gfec|dcde fddA|
dfaf gfeg|fAdf edBA|GABG FAdB|AGFD ED D2 :|


Tune 761	Setting 22875

